22x22/panel/lyricfier-tray.svg

<svg xmlns="http://www.w3.org/2000/svg" width="22" height="22" version="1.1">
 <defs>
  <style id="current-color-scheme" type="text/css">
   .ColorScheme-Text { color:#d3dae3; } .ColorScheme-Highlight { color:#4285f4; }
  </style>
 </defs>
 <path style="fill:currentColor" class="ColorScheme-Text" d="m 3.8007811,3 c -0.4432,0 -0.800781,0.3575812 -0.800781,0.8007812 V 18.199219 c 0,0.4432 0.357581,0.800781 0.800781,0.800781 H 18.199219 C 18.642419,19 19,18.642419 19,18.199219 V 3.8007812 C 19,3.3575812 18.642419,3 18.199219,3 Z M 10.5,5 C 10.777,5 11,5.3345 11,5.75 v 10.5 C 11,16.6655 10.777,17 10.5,17 10.223,17 10,16.6655 10,16.25 V 5.75 C 10,5.3345 10.223,5 10.5,5 Z M 4.5000001,6 c 0.277,0 0.5,0.3705493 0.5,0.8320312 v 8.3359378 c 0,0.461482 -0.223,0.832031 -0.5,0.832031 -0.2770001,0 -0.5,-0.370549 -0.5,-0.832031 V 6.8320312 C 4.0000001,6.3705492 4.223,6 4.5000001,6 Z M 13.5,6 C 13.777,6 14,6.3192877 14,6.7148438 V 15.285156 C 14,15.680712 13.777,16 13.5,16 13.223,16 13,15.680712 13,15.285156 V 6.7148438 C 13,6.3192877 13.223,6 13.5,6 Z M 7.5000001,7 c 0.2769999,0 0.5,0.3575812 0.5,0.8007812 v 6.3984378 c 0,0.4432 -0.2230001,0.800781 -0.5,0.800781 -0.277,0 -0.5,-0.357581 -0.5,-0.800781 V 7.8007812 c 0,-0.4432 0.223,-0.8007812 0.5,-0.8007812 z M 16.5,7 C 16.777,7 17,7.2984508 17,7.6679688 V 14.332031 C 17,14.701549 16.777,15 16.5,15 16.223,15 16,14.701549 16,14.332031 V 7.6679688 C 16,7.2984508 16.223,7 16.5,7 Z"/>
</svg>

<svg xmlns="http://www.w3.org/2000/svg" width="22" height="22"><defs><style id="current-color-scheme" type="text/css"></style></defs><path style="fill:currentColor;color:#d3dae3" d="M3.8 3a.8.8 0 0 0-.8.8v14.4a.8.8 0 0 0 .8.8h14.4a.8.8 0 0 0 .8-.8V3.8a.8.8 0 0 0-.8-.8zm6.7 2c.277 0 .5.335.5.75v10.5c0 .416-.223.75-.5.75s-.5-.334-.5-.75V5.75c0-.415.223-.75.5-.75zm-6 1c.277 0 .5.37.5.832v8.336c0 .461-.223.832-.5.832s-.5-.37-.5-.832V6.832C4 6.371 4.223 6 4.5 6zm9 0c.277 0 .5.32.5.715v8.57c0 .396-.223.715-.5.715s-.5-.32-.5-.715v-8.57c0-.396.223-.715.5-.715zm-6 1c.277 0 .5.358.5.8v6.4c0 .442-.223.8-.5.8s-.5-.358-.5-.8V7.8c0-.442.223-.8.5-.8zm9 0c.277 0 .5.298.5.668v6.664c0 .37-.223.668-.5.668s-.5-.298-.5-.668V7.668c0-.37.223-.668.5-.668z"/></svg>
